X:1
T:Sang til Juletræet
T:Sang til Juletræet
T:op. 61, #2
T:Edvard Grieg
T:Johan Krohn
C:Edvard Grieg
Z:Johan Krohn
%%score [ 1 2 3 ]
L:1/8
Q:1/4=40
M:6/8
K:Eb
V:1 treble nm="Sopran"
V:2 treble nm="Sopran"
V:3 treble nm="Alt"
V:1
!p!"^Allegretto religioso" B | G2 E!<(! G3/2 F/ E!<)! | F2!>(! c B2 B!>)! | %3
w: 1.Du|grøn- ne, glit- ren- de|træ, god dag! Vel-|
w: 2.Den|før- ste jul, i et|frem- med land, sin|
w: 3.Om|Je- sus- bar- net for-|tal- te mor saa|
 G2 E!<(! G3/2 F/ E!<)! | F2!>(! c c B A!>)! | G2 B e!<(! d B!<)! | c2!>(! =A F2!>)! B | %7
w: kom- men, du, som vi|ser saa gjer- ne, med|ju- le- lys og med|nor- ske flag og|
w: sto- re stjer- ne Vor|Her- re tænd- te; den|skul- de vi- se vor|jord, at han den|
w: man- gen af- ten vi|sad her hjem- me; vi|kan hans bud og hans|mil- de ord, vi|
 c2 d"^cresc." c B B |[Q:1/4=40]"^ritard." (cf) d c !fermata!B!pp![Q:1/4=40]"^a tempo" B | %9
w: hlit i top- pen den|blan- * ke stjer- ne! Ja|
w: lil- le Je- sus til|ver- * den send- te. I|
w: ved, at al- drig vi|dem _ maa glem- me. Naar|
 e2 d c3/2 B/ A | d2 c B3/2 A/ G |!<(! c6- | c3!<)!!>(! d3!>)! | e3- e2 z |] %14
w: den maa skin- ne, for|den skal min- de os|om|_ vor|Gud! _|
w: stjer- ne- glan- sen gik|eng- le- dan- sen om|Bet-|* le-|hem. _|
w: stjer- nen skin- ner, om|ham os min- der vort|ju-|* le-|træ! _|
V:2
!p! B | E2 B,!<(! E3/2 D/ B,!<)! | E2!>(! F F2 D!>)! | E2 B,!<(! E3/2 D/ B,!<)! | %4
w: 1.Du|grøn- ne, glit- ren- de|træ, god dag! Vel-|kom- men, du, som vi|
w: 2.Den|før- ste jul, i et|frem- med land, sin|sto- re stjer- ne Vor|
w: 3.Om|Je- sus- bar- net for-|tal- te mor saa|man- gen af- ten vi|
 E2!>(! F F F D!>)! | E2 F G!<(! B G!<)! | G2!>(! F F2!>)! F | =A2 B"^cresc." A F F | %8
w: ser saa gjer- ne, med|ju- le- lys og med|nor- ske flag og|hlit i top- pen den|
w: Her- re tænd- te; den|skul- de vi- se vor|jord, at han den|lil- le Je- sus til|
w: sad her hjem- me; vi|kan hans bud og hans|mil- de ord, vi|ved, at al- drig vi|
 (=Ac) B A !fermata!F!pp! _A | B2 B A3/2 G/ E | A2 A G3/2 F/ D |!<(! (G3 B3 | A3)!<)!!>(! A3!>)! | %13
w: blan- * ke stjer- ne! Ja|den maa skin- ne, for|den skal min- de os|om _|_ vor|
w: ver- * den send- te. I|stjer- ne- glan- sen gik|eng- le- dan- sen om|Bet- *|* le-|
w: dem _ maa glem- me. Naar|stjer- nen skin- ner, om|ham os min- der vort|ju- *|* le-|
 G3- G2 z |] %14
w: Gud! _|
w: hem. _|
w: træ! _|
V:3
!p! B, | E2 G,!<(! E3/2 B,/ G,!<)! | A,2!>(! E D2 B,!>)! | E2 G,!<(! E3/2 B,/ G,!<)! | %4
w: 1.Du|grøn- ne, glit- ren- de|træ, god dag! Vel-|kom- men, du, som vi|
w: 2.Den|før- ste jul, i et|frem- med land, sin|sto- re stjer- ne Vor|
w: 3.Om|Je- sus- bar- net for-|tal- te mor saa|man- gen af- ten vi|
 A,2!>(! E D D B,!>)! | E2 D C!<(! D G!<)! | E2!>(! E D2!>)! D | F2 B"^cresc." F D D | %8
w: ser saa gjer- ne, med|ju- le- lys og med|nor- ske flag og|hlit i top- pen den|
w: Her- re tænd- te; den|skul- de vi- se vor|jord, at han den|lil- le Je- sus til|
w: sad her hjem- me; vi|kan hans bud og hans|mil- de ord, vi|ved, at al- drig vi|
 (F=A) B F !fermata!D!pp! D | G2 E _A3/2 E/ C | F2 D G3/2 D/ B, |!<(!!<(! (E3 =E3 | %12
w: blan- * ke stjer- ne! Ja|den maa skin- ne, for|den skal min- de os|om _|
w: ver- * den send- te. I|stjer- ne- glan- sen gik|eng- le- dan- sen om|Bet- *|
w: dem _ maa glem- me. Naar|stjer- nen skin- ner, om|ham os min- der vort|ju- *|
 F3)!<)!!<)!!>(!!>(! B,3!>)!!>)! | E3- E2 z |] %14
w: _ vor|Gud! _|
w: * le-|hem. _|
w: * le-|træ! _|

